public/images/hashed/ac40c6510328cd0ec991f6b34be5a948.svg

<?xml version="1.0" encoding="UTF-8"?>
<svg width="80px" height="80px" viewBox="0 0 80 80" version="1.1" xmlns="http://www.w3.org/2000/svg" xmlns:xlink="http://www.w3.org/1999/xlink">
    <!-- Generator: Sketch 64 (93537) - https://sketch.com -->
    <title>Icon-Architecture/64/Arch_AWS-Deep-Lense_64</title>
    <desc>Created with Sketch.</desc>
    <defs>
        <linearGradient x1="0%" y1="100%" x2="100%" y2="0%" id="linearGradient-1">
            <stop stop-color="#055F4E" offset="0%"></stop>
            <stop stop-color="#56C0A7" offset="100%"></stop>
        </linearGradient>
    </defs>
    <g id="Icon-Architecture/64/Arch_AWS-Deep-Lense_64" stroke="none" stroke-width="1" fill="none" fill-rule="evenodd">
        <g id="Icon-Architecture-BG/64/Machine-Learning" fill="url(#linearGradient-1)">
            <rect id="Rectangle" x="0" y="0" width="80" height="80"></rect>
        </g>
        <path d="M38.9846215,25.5 C38.9846215,26.329 39.655682,27 40.4825245,27 C41.3093669,27 41.9804274,26.329 41.9804274,25.5 C41.9804274,24.671 41.3093669,24 40.4825245,24 C39.655682,24 38.9846215,24.671 38.9846215,25.5 L38.9846215,25.5 Z M40.4825245,21 C38.004993,21 35.9888157,23.019 35.9888157,25.5 C35.9888157,27.981 38.004993,30 40.4825245,30 C42.9600559,30 44.9762333,27.981 44.9762333,25.5 C44.9762333,23.019 42.9600559,21 40.4825245,21 L40.4825245,21 Z M40.4825245,19 C44.0615139,19 46.9734372,21.916 46.9734372,25.5 C46.9734372,29.084 44.0615139,32 40.4825245,32 C36.9035351,32 33.9916117,29.084 33.9916117,25.5 C33.9916117,21.916 36.9035351,19 40.4825245,19 L40.4825245,19 Z M40.4825245,64 C39.655682,64 38.9846215,64.671 38.9846215,65.5 C38.9846215,66.329 39.655682,67 40.4825245,67 C41.3093669,67 41.9804274,66.329 41.9804274,65.5 C41.9804274,64.671 41.3093669,64 40.4825245,64 L40.4825245,64 Z M40.4825245,58 C39.655682,58 38.9846215,58.671 38.9846215,59.5 C38.9846215,60.329 39.655682,61 40.4825245,61 C41.3093669,61 41.9804274,60.329 41.9804274,59.5 C41.9804274,58.671 41.3093669,58 40.4825245,58 L40.4825245,58 Z M40.4825245,52 C39.655682,52 38.9846215,52.671 38.9846215,53.5 C38.9846215,54.329 39.655682,55 40.4825245,55 C41.3093669,55 41.9804274,54.329 41.9804274,53.5 C41.9804274,52.671 41.3093669,52 40.4825245,52 L40.4825245,52 Z M42.9790294,15 L44.9762333,15 L44.9762333,13 L42.9790294,13 L42.9790294,15 Z M42.9790294,47 L44.9762333,47 L44.9762333,45 L42.9790294,45 L42.9790294,47 Z M46.9734372,67 L48.9706411,67 L48.9706411,52 L46.9734372,52 L46.9734372,67 Z M31.9944078,67 L33.9916117,67 L33.9916117,57 L31.9944078,57 L31.9944078,67 Z M31.9944078,55 L33.9916117,55 L33.9916117,50 L31.9944078,50 L31.9944078,55 Z M48.9706411,38.998 L45.9748352,38.998 L45.9748352,40.998 L48.9706411,40.998 C49.7665269,40.998 50.967845,40.998 50.967845,44 L50.967845,45 L46.9734372,45 L46.9734372,47 L50.9698422,47 L50.9808268,67 L52.9780308,67 L52.9650489,44 C52.9650489,40.681 51.6209307,38.998 48.9706411,38.998 L48.9706411,38.998 Z M40.9818254,47 L40.9818254,45 L29.9982025,45 L29.9972039,44 C29.9972039,41 31.1985221,41 31.9944078,41 L34.9902137,41 L34.9902137,39 L31.9944078,39 C29.3441182,39 28,40.682 28,44.001 L28.0129818,56.001 L30.0101857,55.999 L30.0001997,47 L40.9818254,47 Z M53,15.745 L53,35.3 C53,36.037 53,36.603 52.7143998,37.097 C52.2101059,37.969 51.1795486,37.969 50.7910925,37.969 L43.9776313,37.969 L43.9776313,41 L41.9804274,41 L41.9804274,37.969 L38.9846215,37.969 L38.9846215,41 L36.9874176,41 L36.9874176,37.969 L30.2089075,37.969 C29.8204514,37.969 28.7898941,37.969 28.2856002,37.097 C28,36.603 28,36.037 28,35.32 L28,15.765 C28,15.025 28,14.458 28.2676253,13.952 C28.7719193,13 29.8534052,13 30.2089075,13 L40.9818254,13 L40.9818254,15 L30.2089075,15 C30.1270222,15 30.0631116,15.003 30.0161774,15.008 C29.9972039,15.191 29.9972039,15.491 29.9972039,15.745 L29.9972039,35.3 C29.9972039,35.531 29.9972039,35.789 30.0091871,35.963 C30.0601158,35.967 30.1260236,35.969 30.2089075,35.969 L50.7910925,35.969 C50.8739764,35.969 50.9398842,35.967 50.9908129,35.963 C51.0027961,35.791 51.0027961,35.537 51.0027961,35.32 L51.0027961,15.765 C51.0027961,15.496 51.0027961,15.191 50.9848213,15.008 C50.9368884,15.003 50.8729778,15 50.7910925,15 L46.9734372,15 L46.9734372,13 L50.7910925,13 C51.1465948,13 52.2280807,13 52.7333733,13.952 C53,14.458 53,15.025 53,15.745 L53,15.745 Z" id="AWS-Deep-Lense_Icon_64_Squid" fill="#FFFFFF"></path>
    </g>
</svg>

<svg xmlns="http://www.w3.org/2000/svg" width="80" height="80"><defs><linearGradient id="a" x1="0%" x2="100%" y1="100%" y2="0%"><stop offset="0%" stop-color="#055F4E"/><stop offset="100%" stop-color="#56C0A7"/></linearGradient></defs><g fill="none" fill-rule="evenodd"><path fill="url(#a)" d="M0 0h80v80H0z"/><path fill="#FFF" d="M38.985 25.5a1.499 1.499 0 1 0 1.498-1.5c-.827 0-1.498.671-1.498 1.5Zm1.498-4.5a4.502 4.502 0 0 0-4.494 4.5c0 2.481 2.016 4.5 4.494 4.5a4.502 4.502 0 0 0 4.493-4.5c0-2.481-2.016-4.5-4.493-4.5Zm0-2c3.579 0 6.49 2.916 6.49 6.5s-2.911 6.5-6.49 6.5c-3.58 0-6.491-2.916-6.491-6.5s2.912-6.5 6.49-6.5Zm0 45c-.827 0-1.498.671-1.498 1.5a1.499 1.499 0 1 0 1.498-1.5Zm0-6c-.827 0-1.498.671-1.498 1.5a1.499 1.499 0 1 0 1.498-1.5Zm0-6c-.827 0-1.498.671-1.498 1.5a1.499 1.499 0 1 0 1.498-1.5Zm2.496-37h1.997v-2H42.98v2Zm0 32h1.997v-2H42.98v2Zm3.994 20h1.998V52h-1.998v15Zm-14.979 0h1.998V57h-1.998v10Zm0-12h1.998v-5h-1.998v5Zm16.977-16.002h-2.996v2h2.996c.796 0 1.997 0 1.997 3.002v1h-3.995v2h3.997l.01 20h1.998l-.013-23c0-3.319-1.344-5.002-3.994-5.002ZM40.98 47v-2H29.999v-1c0-3 1.2-3 1.996-3h2.996v-2h-2.996C29.344 39 28 40.682 28 44.001l.013 12 1.997-.002L30 47h10.982ZM53 15.745V35.3c0 .737 0 1.303-.286 1.797-.504.872-1.534.872-1.923.872h-6.813V41H41.98v-3.031h-2.995V41h-1.998v-3.031H30.21c-.389 0-1.42 0-1.923-.872C28 36.603 28 36.037 28 35.32V15.765c0-.74 0-1.307.268-1.813.504-.952 1.585-.952 1.94-.952h10.774v2H30.209a1.89 1.89 0 0 0-.193.008c-.019.183-.019.483-.019.737V35.3c0 .231 0 .489.012.663.051.004.117.006.2.006H50.79c.083 0 .149-.002.2-.006.012-.172.012-.426.012-.643V15.765c0-.269 0-.574-.018-.757A1.927 1.927 0 0 0 50.79 15h-3.818v-2h3.818c.356 0 1.437 0 1.942.952.267.506.267 1.073.267 1.793Z"/></g></svg>
